packages/opendesign/src/icons/svgs/fill/time.svg

<?xml version="1.0" encoding="UTF-8"?>
<svg width="24px" height="24px" viewBox="0 0 24 24" version="1.1" xmlns="http://www.w3.org/2000/svg" xmlns:xlink="http://www.w3.org/1999/xlink">
    <title>time</title>
    <g id="time" stroke="none" stroke-width="1" fill="none" fill-rule="evenodd">
        <path d="M12,1.5 C13.1256698,1.5 14.2282637,1.67743667 15.2772316,2.02176555 C15.6707846,2.15095124 15.8850966,2.57471465 15.7559109,2.96826761 C15.6267252,3.36182057 15.2029618,3.57613258 14.8094088,3.44694688 C13.9109691,3.15202963 12.9662549,3 12,3 C7.02943725,3 3,7.02943725 3,12 C3,16.9705627 7.02943725,21 12,21 C16.9705627,21 21,16.9705627 21,12 C21,9.2045643 19.7182302,6.62190938 17.5633145,4.92490866 C17.2378936,4.66863902 17.1818355,4.19708569 17.4381051,3.87166481 C17.6943747,3.54624393 18.1659281,3.49018577 18.4913489,3.74645541 C21.0036694,5.72491311 22.5,8.73988948 22.5,12 C22.5,17.7989899 17.7989899,22.5 12,22.5 C6.20101013,22.5 1.5,17.7989899 1.5,12 C1.5,6.20101013 6.20101013,1.5 12,1.5 Z M12.75,5.77111816 C13.1642136,5.77111816 13.5,6.1069046 13.5,6.52111816 L13.5,13.0853745 L9.88397284,16.3201635 C9.57525817,16.5963304 9.10111802,16.5699451 8.82495117,16.2612305 C8.54875835,15.9524868 8.57506861,15.4783213 8.88372359,15.2020293 L12,12.4125 L12,6.52111816 C12,6.1069046 12.3357864,5.77111816 12.75,5.77111816 Z" id="path1" fill="#000000" fill-rule="nonzero"></path>
    </g>
</svg>

<!-- Generated by IcoMoon.io -->
<svg version="1.1" xmlns="http://www.w3.org/2000/svg" width="24" height="24" viewBox="0 0 24 24">
<title>time</title>
<path d="M12 1.5c1.126 0 2.228 0.177 3.277 0.522 0.394 0.129 0.608 0.553 0.479 0.946s-0.553 0.608-0.947 0.479c-0.898-0.295-1.843-0.447-2.809-0.447-4.971 0-9 4.029-9 9s4.029 9 9 9c4.971 0 9-4.029 9-9 0-2.795-1.282-5.378-3.437-7.075-0.325-0.256-0.381-0.728-0.125-1.053s0.728-0.381 1.053-0.125c2.512 1.978 4.009 4.993 4.009 8.254 0 5.799-4.701 10.5-10.5 10.5s-10.5-4.701-10.5-10.5c0-5.799 4.701-10.5 10.5-10.5zM12.75 5.771c0.414 0 0.75 0.336 0.75 0.75v6.564l-3.616 3.235c-0.309 0.276-0.783 0.25-1.059-0.059s-0.25-0.783 0.059-1.059l3.116-2.79v-5.891c0-0.414 0.336-0.75 0.75-0.75z"></path>
</svg>
